packages/foundations/assets/icons/functional/images/transportation/taxi.svg

<svg xmlns="http://www.w3.org/2000/svg" width="32" height="32" fill="none"><path fill="#1A1C1F" fill-rule="evenodd" d="M12.674 3.064c-.678.245-.897 1.083-.417 1.596.079.084.239.198.356.252.2.093.41.099 3.334.1 1.985 0 3.192-.019 3.318-.054.396-.11.731-.542.734-.946.002-.35-.231-.73-.559-.91-.143-.079-.497-.09-3.36-.101-2.628-.01-3.237.002-3.406.063M8.827 6.087c-.434.102-1.002.433-1.366.796-.592.59-.641.726-1.497 4.144l-.75 2.995-1.318.015-1.318.016-.201.154c-.305.233-.35.397-.35 1.268 0 .649.015.79.106.978.205.424.525.56 1.315.56H4v.547c0 .825.41 4.944.542 5.439.06.227.189.545.287.708l.178.295.017 1.719c.017 1.665.022 1.729.145 2.036.165.413.53.804.93.994.476.226.909.276 2.157.25.94-.02 1.155-.04 1.451-.137.435-.142.744-.367.95-.692.27-.425.332-.737.368-1.845l.032-1.007.538.035c2.882.186 5.834.185 8.845-.001l.573-.036v.962c0 .808.017 1.017.106 1.303.203.66.619 1.083 1.281 1.305.253.085.471.099 1.6.099 1.199 0 1.337-.01 1.68-.118.457-.144.766-.364.977-.697.315-.495.34-.673.369-2.545l.025-1.707.179-.375c.099-.206.215-.53.258-.72.095-.415.447-4.021.494-5.061l.034-.74.645-.019c.736-.022.893-.083 1.14-.439.141-.203.146-.237.163-1.025.019-.928-.024-1.092-.354-1.344l-.188-.144-1.311-.026L26.8 14l-.762-3.013c-.532-2.103-.813-3.118-.929-3.359-.21-.433-.795-1.028-1.247-1.267-.668-.353-.238-.335-7.887-.329-4.096.003-7.022.026-7.148.055M22.86 8.102c.435.198.447.231 1.17 3.11.364 1.445.661 2.67.662 2.721.001.089-.448.094-8.699.094h-8.7l.035-.172c.018-.094.326-1.321.683-2.726.409-1.614.689-2.615.759-2.718.06-.09.216-.219.345-.287L9.35 8l6.645.001c6.375.001 6.654.005 6.865.101m2.473 7.999c.476.188.597.432.629 1.269l.026.651-1.172.016c-1.147.016-1.175.019-1.364.149a1.16 1.16 0 0 0-.434.659c-.051.218.097.678.273.847.284.272.461.308 1.507.308h.962v.147c0 .08-.049.634-.108 1.231-.116 1.172-.19 1.426-.45 1.545-.415.189-4.734.498-8.029.574-2.662.062-7.001-.141-9.839-.46-.813-.092-.848-.149-.989-1.586-.056-.578-.113-1.14-.125-1.248l-.022-.197 1.078-.016c1.039-.016 1.086-.021 1.266-.145.317-.217.443-.453.444-.83.001-.271-.025-.369-.146-.551-.266-.402-.403-.437-1.697-.437H6.016l.019-.68c.015-.566.037-.711.127-.865q.2-.341.704-.427c.14-.024 4.31-.04 9.267-.036 7.552.006 9.044.02 9.2.082m-13.642 2.945c-.264.077-.569.412-.643.706-.128.508.172 1.048.666 1.196.284.085 8.26.094 8.564.01.397-.11.731-.542.734-.946.002-.35-.231-.73-.559-.91-.144-.08-.563-.09-4.373-.098-2.574-.006-4.282.011-4.389.042M8 25.093c.484.044.91.079.947.08.05 0 .066.218.066.907v.907H7.04V26c0-.543.018-.986.04-.986s.436.036.92.079M25.013 26v.987H23.04v-.907c0-.687.016-.908.067-.911.036-.002.39-.035.786-.073s.81-.071.92-.075l.2-.008z"/></svg>

<svg width="32" height="32" viewBox="0 0 32 32" fill="none" xmlns="http://www.w3.org/2000/svg"><path d="M12.674 3.064 C 11.996 3.309,11.777 4.147,12.257 4.660 C 12.336 4.744,12.496 4.858,12.613 4.912 C 12.813 5.005,13.023 5.011,15.947 5.012 C 17.932 5.012,19.139 4.993,19.265 4.958 C 19.661 4.848,19.996 4.416,19.999 4.012 C 20.001 3.662,19.768 3.282,19.440 3.102 C 19.297 3.023,18.943 3.012,16.080 3.001 C 13.452 2.991,12.843 3.003,12.674 3.064 M8.827 6.087 C 8.393 6.189,7.825 6.520,7.461 6.883 C 6.869 7.473,6.820 7.609,5.964 11.027 L 5.214 14.022 3.896 14.037 L 2.578 14.053 2.377 14.207 C 2.072 14.440,2.027 14.604,2.027 15.475 C 2.027 16.124,2.042 16.265,2.133 16.453 C 2.338 16.877,2.658 17.013,3.448 17.013 L 4.000 17.013 4.000 17.560 C 4.000 18.385,4.410 22.504,4.542 22.999 C 4.602 23.226,4.731 23.544,4.829 23.707 L 5.007 24.002 5.024 25.721 C 5.041 27.386,5.046 27.450,5.169 27.757 C 5.334 28.170,5.699 28.561,6.099 28.751 C 6.575 28.977,7.008 29.027,8.256 29.001 C 9.196 28.981,9.411 28.961,9.707 28.864 C 10.142 28.722,10.451 28.497,10.657 28.172 C 10.927 27.747,10.989 27.435,11.025 26.327 L 11.057 25.320 11.595 25.355 C 14.477 25.541,17.429 25.540,20.440 25.354 L 21.013 25.318 21.013 26.280 C 21.013 27.088,21.030 27.297,21.119 27.583 C 21.322 28.243,21.738 28.666,22.400 28.888 C 22.653 28.973,22.871 28.987,24.000 28.987 C 25.199 28.987,25.337 28.977,25.680 28.869 C 26.137 28.725,26.446 28.505,26.657 28.172 C 26.972 27.677,26.997 27.499,27.026 25.627 L 27.051 23.920 27.230 23.545 C 27.329 23.339,27.445 23.015,27.488 22.825 C 27.583 22.410,27.935 18.804,27.982 17.764 L 28.016 17.024 28.661 17.005 C 29.397 16.983,29.554 16.922,29.801 16.566 C 29.942 16.363,29.947 16.329,29.964 15.541 C 29.983 14.613,29.940 14.449,29.610 14.197 L 29.422 14.053 28.111 14.027 L 26.800 14.000 26.038 10.987 C 25.506 8.884,25.225 7.869,25.109 7.628 C 24.899 7.195,24.314 6.600,23.862 6.361 C 23.194 6.008,23.624 6.026,15.975 6.032 C 11.879 6.035,8.953 6.058,8.827 6.087 M22.860 8.102 C 23.295 8.300,23.307 8.333,24.030 11.212 C 24.394 12.657,24.691 13.882,24.692 13.933 C 24.693 14.022,24.244 14.027,15.993 14.027 L 7.293 14.027 7.328 13.855 C 7.346 13.761,7.654 12.534,8.011 11.129 C 8.420 9.515,8.700 8.514,8.770 8.411 C 8.830 8.321,8.986 8.192,9.115 8.124 L 9.350 8.000 15.995 8.001 C 22.370 8.002,22.649 8.006,22.860 8.102 M25.333 16.101 C 25.809 16.289,25.930 16.533,25.962 17.370 L 25.988 18.021 24.816 18.037 C 23.669 18.053,23.641 18.056,23.452 18.186 C 23.251 18.323,23.079 18.584,23.018 18.845 C 22.967 19.063,23.115 19.523,23.291 19.692 C 23.575 19.964,23.752 20.000,24.798 20.000 L 25.760 20.000 25.760 20.147 C 25.760 20.227,25.711 20.781,25.652 21.378 C 25.536 22.550,25.462 22.804,25.202 22.923 C 24.787 23.112,20.468 23.421,17.173 23.497 C 14.511 23.559,10.172 23.356,7.334 23.037 C 6.521 22.945,6.486 22.888,6.345 21.451 C 6.289 20.873,6.232 20.311,6.220 20.203 L 6.198 20.006 7.276 19.990 C 8.315 19.974,8.362 19.969,8.542 19.845 C 8.859 19.628,8.985 19.392,8.986 19.015 C 8.987 18.744,8.961 18.646,8.840 18.464 C 8.574 18.062,8.437 18.027,7.143 18.027 L 6.016 18.027 6.035 17.347 C 6.050 16.781,6.072 16.636,6.162 16.482 C 6.295 16.255,6.531 16.112,6.866 16.055 C 7.006 16.031,11.176 16.015,16.133 16.019 C 23.685 16.025,25.177 16.039,25.333 16.101 M11.691 19.046 C 11.427 19.123,11.122 19.458,11.048 19.752 C 10.920 20.260,11.220 20.800,11.714 20.948 C 11.998 21.033,19.974 21.042,20.278 20.958 C 20.675 20.848,21.009 20.416,21.012 20.012 C 21.014 19.662,20.781 19.282,20.453 19.102 C 20.309 19.022,19.890 19.012,16.080 19.004 C 13.506 18.998,11.798 19.015,11.691 19.046 M8.000 25.093 C 8.484 25.137,8.910 25.172,8.947 25.173 C 8.997 25.173,9.013 25.391,9.013 26.080 L 9.013 26.987 8.027 26.987 L 7.040 26.987 7.040 26.000 C 7.040 25.457,7.058 25.014,7.080 25.014 C 7.102 25.014,7.516 25.050,8.000 25.093 M25.013 26.000 L 25.013 26.987 24.027 26.987 L 23.040 26.987 23.040 26.080 C 23.040 25.393,23.056 25.172,23.107 25.169 C 23.143 25.167,23.497 25.134,23.893 25.096 C 24.289 25.059,24.703 25.025,24.813 25.021 L 25.013 25.013 25.013 26.000 " fill="#1A1C1F" stroke="none" fill-rule="evenodd"></path></svg>
